;FLAVOR:Marlin
;TIME:915
;Filament used: 0.364681m
;Layer height: 0.2
;MINX:93.513
;MINY:86.661
;MINZ:0.2
;MAXX:126.531
;MAXY:132.955
;MAXZ:11.8
;Generated with Creality Slicer 4.8.2-205
M140 S60
M105
M190 S60
M104 S200
M105
M109 S200
M82 ;absolute extrusion mode

G28 ;Home

G92 E0 ;Reset Extruder
G1 Z2.0 F3000 ;Move Z Axis up
G1 X10.1 Y20 Z0.28 F5000.0 ;Move to start position
G1 X10.1 Y200.0 Z0.28 F1500.0 E15 ;Draw the first line
G1 X10.4 Y200.0 Z0.28 F5000.0 ;Move to side a little
G1 X10.4 Y20 Z0.28 F1500.0 E30 ;Draw the second line
G92 E0 ;Reset Extruder
G1 Z2.0 F3000 ;Move Z Axis up

G92 E0
G92 E0
G1 F3600 E-5
;LAYER_COUNT:59
;LAYER:0
M107
G0 F6000 X96.339 Y90.293 Z0.2
;TYPE:SKIRT
G1 F3600 E0
G1 F1200 X96.996 Y89.624 E0.03119
G1 X97.708 Y89.013 E0.06239
G1 X98.469 Y88.465 E0.09358
G1 X99.274 Y87.984 E0.12477
G1 X100.117 Y87.574 E0.15595
G1 X100.992 Y87.237 E0.18714
G1 X101.893 Y86.975 E0.21835
G1 X102.813 Y86.791 E0.24955
G1 X103.745 Y86.686 E0.28075
G1 X104.904 Y86.667 E0.3193
G1 X105.739 Y86.697 E0.34709
G1 X109.152 Y86.759 E0.46063
G1 X110.476 Y86.759 E0.50466
G1 X113.855 Y86.698 E0.61707
G1 X114.938 Y86.661 E0.65311
G1 X115.876 Y86.668 E0.68431
G1 X116.81 Y86.756 E0.71551
G1 X117.733 Y86.922 E0.7467
G1 X118.638 Y87.167 E0.77789
G1 X119.519 Y87.488 E0.80907
G1 X120.37 Y87.883 E0.84028
G1 X121.184 Y88.349 E0.87147
G1 X121.955 Y88.882 E0.90265
G1 X122.678 Y89.479 E0.93383
G1 X123.348 Y90.136 E0.96504
G1 X123.959 Y90.847 E0.99622
G1 X124.508 Y91.608 E1.02743
G1 X124.989 Y92.413 E1.05862
G1 X125.4 Y93.256 E1.08982
G1 X125.738 Y94.131 E1.12102
G1 X126.001 Y95.031 E1.1522
G1 X126.185 Y95.951 E1.18341
G1 X126.291 Y96.883 E1.2146
G1 X126.316 Y97.447 E1.23338
G1 X126.333 Y98.352 E1.26349
G1 X126.335 Y98.559 E1.27037
G1 X126.335 Y105.278 E1.49385
G1 X126.372 Y107.882 E1.58047
G1 X126.471 Y110.289 E1.66059
G1 X126.488 Y110.612 E1.67135
G1 X126.502 Y110.977 E1.6835
G1 X126.523 Y112.009 E1.71783
G1 X126.525 Y112.245 E1.72568
G1 X126.523 Y114.108 E1.78764
G1 X126.53 Y114.722 E1.80807
G1 X126.53 Y114.996 E1.81718
G1 X126.513 Y116.195 E1.85706
G1 X126.513 Y118.798 E1.94364
G1 X126.528 Y119.551 E1.96869
G1 X126.531 Y119.907 E1.98053
G1 X126.53 Y121.156 E2.02207
G1 X126.519 Y121.894 E2.04662
G1 X126.465 Y122.83 E2.0778
G1 X126.331 Y123.759 E2.10902
G1 X126.119 Y124.672 E2.1402
G1 X125.83 Y125.564 E2.17138
G1 X125.466 Y126.429 E2.2026
G1 X125.02 Y127.276 E2.23443
G1 X124.919 Y127.449 E2.2411
G1 X124.412 Y128.238 E2.27229
G1 X123.839 Y128.981 E2.3035
G1 X123.206 Y129.673 E2.33469
G1 X122.516 Y130.308 E2.36588
G1 X121.774 Y130.882 E2.39708
G1 X120.986 Y131.39 E2.42826
G1 X120.49 Y131.664 E2.44711
G1 X120.413 Y131.704 E2.45
G1 X119.563 Y132.101 E2.4812
G1 X118.682 Y132.424 E2.51241
G1 X117.777 Y132.67 E2.5436
G1 X116.855 Y132.838 E2.57477
G1 X115.513 Y132.942 E2.61954
G1 X114.572 Y132.955 E2.65084
G1 X105.65 Y132.954 E2.94759
G1 X104.948 Y132.944 E2.97094
G1 X104.012 Y132.891 E3.00212
G1 X103.084 Y132.758 E3.0333
G1 X102.17 Y132.546 E3.06451
G1 X101.277 Y132.258 E3.09572
G1 X100.413 Y131.894 E3.1269
G1 X99.582 Y131.458 E3.15811
G1 X98.792 Y130.953 E3.1893
G1 X98.048 Y130.383 E3.22047
G1 X97.327 Y129.723 E3.25298
G1 X97.215 Y129.611 E3.25825
G1 X96.581 Y128.92 E3.28944
G1 X96.007 Y128.178 E3.32064
G1 X95.5 Y127.389 E3.35183
G1 X95.061 Y126.561 E3.383
G1 X94.694 Y125.697 E3.41423
G1 X94.402 Y124.806 E3.44541
G1 X94.188 Y123.893 E3.4766
G1 X94.051 Y122.965 E3.5078
G1 X93.997 Y122.117 E3.53606
G1 X93.986 Y121.662 E3.5512
G1 X93.983 Y121.333 E3.56214
G1 X93.985 Y118.544 E3.65491
G1 X93.983 Y118.287 E3.66345
G1 X93.985 Y115.503 E3.75605
G1 X93.983 Y115.246 E3.7646
G1 X93.983 Y114.347 E3.7945
G1 X93.988 Y113.685 E3.81652
G1 X94.005 Y112.838 E3.8447
G1 X94.013 Y112.245 E3.86442
G1 X94.013 Y109.692 E3.94933
G1 X93.915 Y106.546 E4.05402
G1 X93.894 Y106.04 E4.07087
G1 X93.814 Y104.374 E4.12634
G1 X93.759 Y103.386 E4.15925
G1 X93.695 Y102.164 E4.19995
G1 X93.61 Y100.299 E4.26205
G1 X93.536 Y98.713 E4.31485
G1 X93.513 Y98.031 E4.33755
G1 X93.522 Y97.093 E4.36875
G1 X93.61 Y96.159 E4.39995
G1 X93.777 Y95.236 E4.43115
G1 X94.023 Y94.331 E4.46234
G1 X94.344 Y93.45 E4.49353
G1 X94.74 Y92.6 E4.52472
G1 X95.207 Y91.786 E4.55593
G1 X95.741 Y91.015 E4.58712
G1 X96.339 Y90.293 E4.61831
G0 F6000 X96.738 Y90.448
G1 F1200 X97.393 Y89.802 E4.6489
G1 X98.102 Y89.214 E4.67954
G1 X98.859 Y88.69 E4.71016
G1 X99.659 Y88.234 E4.74079
G1 X100.495 Y87.849 E4.7714
G1 X101.361 Y87.537 E4.80202
G1 X102.252 Y87.303 E4.83266
G1 X103.159 Y87.146 E4.86327
G1 X104.076 Y87.069 E4.89388
G1 X104.89 Y87.067 E4.92095
G1 X105.718 Y87.097 E4.94851
G1 X109.145 Y87.159 E5.06251
G1 X110.483 Y87.159 E5.10701
G1 X113.817 Y87.099 E5.21792
G1 X114.952 Y87.06 E5.25569
G1 X115.872 Y87.069 E5.28629
G1 X116.789 Y87.157 E5.31693
G1 X117.694 Y87.324 E5.34754
G1 X118.582 Y87.569 E5.37818
G1 X119.444 Y87.89 E5.40877
G1 X120.276 Y88.285 E5.43941
G1 X121.07 Y88.751 E5.47003
G1 X121.821 Y89.283 E5.50064
G1 X122.523 Y89.879 E5.53127
G1 X123.17 Y90.534 E5.56189
G1 X123.759 Y91.242 E5.59252
G1 X124.283 Y91.999 E5.62314
G1 X124.74 Y92.798 E5.65376
G1 X125.126 Y93.634 E5.68438
G1 X125.438 Y94.5 E5.715
G1 X125.673 Y95.39 E5.74561
G1 X125.831 Y96.297 E5.77624
G1 X125.916 Y97.455 E5.81485
G1 X125.933 Y98.36 E5.84496
G1 X125.935 Y98.559 E5.85158
G1 X125.935 Y105.284 E6.07525
G1 X125.972 Y107.903 E6.16237
G1 X126.068 Y110.251 E6.24053
G1 X126.089 Y110.634 E6.25329
G1 X126.102 Y110.985 E6.26497
G1 X126.123 Y112.017 E6.2993
G1 X126.125 Y112.244 E6.30685
G1 X126.123 Y114.107 E6.36882
G1 X126.13 Y114.726 E6.38941
G1 X126.13 Y114.99 E6.39819
G1 X126.113 Y116.189 E6.43807
G1 X126.113 Y118.806 E6.52511
G1 X126.128 Y119.555 E6.55003
G1 X126.131 Y119.911 E6.56187
G1 X126.13 Y121.15 E6.60308
G1 X126.119 Y121.888 E6.62763
G1 X126.065 Y122.807 E6.65825
G1 X125.932 Y123.718 E6.68887
G1 X125.72 Y124.614 E6.71949
G1 X125.431 Y125.488 E6.75011
G1 X125.068 Y126.334 E6.78073
G1 X124.674 Y127.074 E6.80861
G1 X124.573 Y127.247 E6.81527
G1 X124.075 Y128.021 E6.84588
G1 X123.511 Y128.749 E6.87651
G1 X122.887 Y129.426 E6.90714
G1 X122.206 Y130.045 E6.93775
G1 X121.474 Y130.604 E6.96838
G1 X120.305 Y131.309 E7.01378
G1 X120.228 Y131.349 E7.01667
G1 X119.394 Y131.738 E7.04728
G1 X118.529 Y132.053 E7.0779
G1 X117.639 Y132.291 E7.10854
G1 X116.733 Y132.451 E7.13914
G1 X115.507 Y132.542 E7.18003
G1 X114.572 Y132.555 E7.21113
G1 X105.656 Y132.554 E7.50768
G1 X104.954 Y132.544 E7.53103
G1 X104.035 Y132.491 E7.56164
G1 X103.124 Y132.358 E7.59227
G1 X102.228 Y132.147 E7.62288
G1 X101.353 Y131.859 E7.65352
G1 X100.507 Y131.496 E7.68414
G1 X99.696 Y131.061 E7.71475
G1 X98.925 Y130.557 E7.74538
G1 X98.201 Y129.989 E7.77599
G1 X97.61 Y129.44 E7.80282
G1 X97.498 Y129.328 E7.80809
G1 X96.876 Y128.65 E7.83869
G1 X96.315 Y127.92 E7.86931
G1 X95.819 Y127.144 E7.89994
G1 X95.393 Y126.328 E7.93056
G1 X95.039 Y125.478 E7.96118
G1 X94.761 Y124.6 E7.99182
G1 X94.559 Y123.702 E8.02243
G1 X94.436 Y122.789 E8.05307
G1 X94.397 Y122.107 E8.07579
G1 X94.386 Y121.659 E8.0907
G1 X94.383 Y121.33 E8.10164
G1 X94.385 Y118.54 E8.19444
G1 X94.383 Y118.283 E8.20298
G1 X94.385 Y115.499 E8.29558
G1 X94.383 Y115.242 E8.30413
G1 X94.383 Y114.349 E8.33383
G1 X94.388 Y113.693 E8.35565
G1 X94.405 Y112.846 E8.38383
G1 X94.413 Y112.244 E8.40385
G1 X94.413 Y109.679 E8.48916
G1 X94.315 Y106.533 E8.59385
G1 X94.297 Y106.099 E8.6083
G1 X94.209 Y104.266 E8.66933
G1 X94.158 Y103.365 E8.69935
G1 X94.095 Y102.146 E8.73995
G1 X94.01 Y100.281 E8.80204
G1 X93.936 Y98.699 E8.85472
G1 X93.913 Y98.017 E8.87741
G1 X93.922 Y97.097 E8.90801
G1 X94.011 Y96.18 E8.93866
G1 X94.179 Y95.275 E8.96927
G1 X94.425 Y94.388 E8.99989
G1 X94.747 Y93.525 E9.03052
G1 X95.142 Y92.694 E9.06112
G1 X95.608 Y91.9 E9.09175
G1 X96.142 Y91.15 E9.12237
G1 X96.738 Y90.448 E9.153
G0 F6000 X97.138 Y90.608
G1 F1200 X97.79 Y89.984 E9.18301
G1 X98.496 Y89.42 E9.21307
G1 X99.248 Y88.92 E9.2431
G1 X100.042 Y88.489 E9.27315
G1 X100.87 Y88.13 E9.30317
G1 X101.728 Y87.846 E9.33323
G1 X102.607 Y87.639 E9.36326
G1 X103.5 Y87.51 E9.39327
G1 X104.402 Y87.461 E9.42332
G1 X104.875 Y87.467 E9.43905
G1 X105.695 Y87.497 E9.46634
G1 X109.138 Y87.559 E9.58088
G1 X110.49 Y87.559 E9.62584
G1 X113.838 Y87.499 E9.73722
G1 X114.966 Y87.46 E9.77476
G1 X115.869 Y87.469 E9.80479
G1 X116.767 Y87.558 E9.83481
G1 X117.655 Y87.725 E9.86486
G1 X118.524 Y87.971 E9.8949
G1 X119.368 Y88.292 E9.92493
G1 X120.18 Y88.687 E9.95496
G1 X120.954 Y89.153 E9.98501
G1 X121.684 Y89.684 E10.01504
G1 X122.364 Y90.279 E10.04509
G1 X122.989 Y90.931 E10.07513
G1 X123.553 Y91.636 E10.10516
G1 X124.053 Y92.388 E10.13519
G1 X124.485 Y93.181 E10.16523
G1 X124.845 Y94.009 E10.19526
G1 X125.13 Y94.866 E10.2253
G1 X125.338 Y95.745 E10.25534
G1 X125.467 Y96.639 E10.28538
G1 X125.516 Y97.462 E10.3128
G1 X125.535 Y98.559 E10.3493
G1 X125.535 Y105.29 E10.57317
G1 X125.572 Y107.925 E10.66082
G1 X125.669 Y110.289 E10.73951
G1 X125.689 Y110.655 E10.7517
G1 X125.702 Y110.993 E10.76295
G1 X125.723 Y112.025 E10.79729
G1 X125.725 Y112.244 E10.80457
G1 X125.723 Y114.107 E10.86653
G1 X125.73 Y114.73 E10.88726
G1 X125.73 Y114.985 E10.89574
G1 X125.713 Y116.184 E10.93562
G1 X125.713 Y118.815 E11.02313
G1 X125.728 Y119.558 E11.04784
G1 X125.731 Y119.914 E11.05969
G1 X125.73 Y121.144 E11.1006
G1 X125.719 Y121.882 E11.12514
G1 X125.665 Y122.784 E11.1552
G1 X125.532 Y123.677 E11.18523
G1 X125.321 Y124.555 E11.21526
G1 X125.033 Y125.411 E11.2453
G1 X124.67 Y126.238 E11.27534
G1 X124.329 Y126.873 E11.29931
G1 X124.228 Y127.046 E11.30597
G1 X123.738 Y127.805 E11.33602
G1 X123.184 Y128.517 E11.36603
G1 X122.568 Y129.178 E11.39608
G1 X121.897 Y129.782 E11.42611
G1 X121.174 Y130.324 E11.45616
G1 X120.121 Y130.955 E11.49699
G1 X120.044 Y130.995 E11.49988
G1 X119.225 Y131.375 E11.52991
G1 X118.376 Y131.681 E11.55992
G1 X117.502 Y131.912 E11.58999
G1 X116.612 Y132.064 E11.62002
G1 X115.501 Y132.142 E11.65706
G1 X114.572 Y132.155 E11.68796
G1 X105.662 Y132.154 E11.98431
G1 X104.96 Y132.144 E12.00766
G1 X104.058 Y132.091 E12.03772
G1 X103.165 Y131.959 E12.06774
G1 X102.287 Y131.748 E12.09777
G1 X101.431 Y131.46 E12.12781
G1 X100.603 Y131.098 E12.15787
G1 X99.811 Y130.664 E12.18791
G1 X99.061 Y130.161 E12.21794
G1 X98.358 Y129.595 E12.24796
G1 X97.893 Y129.157 E12.26921
G1 X97.781 Y129.045 E12.27448
G1 X97.171 Y128.379 E12.30451
G1 X96.622 Y127.662 E12.33455
G1 X96.14 Y126.898 E12.36459
G1 X95.726 Y126.095 E12.39464
G1 X95.386 Y125.259 E12.42466
G1 X95.12 Y124.396 E12.4547
G1 X94.932 Y123.513 E12.48472
G1 X94.823 Y122.616 E12.51478
G1 X94.796 Y122.096 E12.5321
G1 X94.786 Y121.655 E12.54677
G1 X94.783 Y121.326 E12.55771
G1 X94.785 Y118.537 E12.65047
G1 X94.783 Y118.28 E12.65902
G1 X94.785 Y115.496 E12.75162
G1 X94.783 Y115.239 E12.76017
G1 X94.783 Y114.352 E12.78967
G1 X94.788 Y113.701 E12.81132
G1 X94.805 Y112.854 E12.8395
G1 X94.813 Y112.244 E12.85979
G1 X94.813 Y109.667 E12.9455
G1 X94.718 Y106.619 E13.04692
G1 X94.693 Y106.007 E13.0673
G1 X94.613 Y104.329 E13.12317
G1 X94.558 Y103.344 E13.15598
G1 X94.495 Y102.127 E13.19652
G1 X94.41 Y100.281 E13.25798
G1 X94.341 Y98.825 E13.30646
G1 X94.313 Y98.004 E13.33378
G1 X94.322 Y97.101 E13.36382
G1 X94.412 Y96.202 E13.39387
G1 X94.58 Y95.315 E13.42389
G1 X94.827 Y94.446 E13.45394
G1 X95.149 Y93.602 E13.48399
G1 X95.544 Y92.79 E13.51402
G1 X96.01 Y92.017 E13.54404
G1 X96.543 Y91.287 E13.5741
G1 X97.138 Y90.608 E13.60413
G1 F3600 E8.60413
G0 F6000 X103.978 Y100.496
G0 X108.587 Y103.178
G0 X108.588 Y103.643
G1 F3600 E13.60413
G1 F1200 X111.535 Y103.642 E13.70215
G1 X111.535 Y109.978 E13.91289
G1 X108.9 Y109.979 E14.00053
G1 X108.742 Y106.921 E14.10237
G1 X108.727 Y106.503 E14.11628
G1 X108.714 Y106.27 E14.12404
G1 X108.637 Y104.334 E14.18849
G1 X108.588 Y103.643 E14.21153
G0 F6000 X108.188 Y103.649
G1 F1200 X108.17 Y103.243 E14.22504
G1 X111.935 Y103.242 E14.35027
G1 X111.935 Y110.378 E14.58761
G1 X108.52 Y110.379 E14.7012
G1 X108.342 Y106.951 E14.81537
G1 X108.329 Y106.533 E14.82927
G1 X108.314 Y106.285 E14.83754
G1 X108.238 Y104.362 E14.90155
G1 X108.188 Y103.649 E14.92532
G0 F6000 X107.787 Y103.656
G1 F1200 X107.76 Y103.032 E14.94609
G1 X107.75 Y102.843 E14.95239
G1 X112.335 Y102.842 E15.10489
G1 X112.335 Y110.44 E15.3576
G1 X112.36 Y110.778 E15.36887
G1 X108.14 Y110.779 E15.50923
G1 X107.942 Y106.948 E15.63682
G1 X107.93 Y106.563 E15.64963
G1 X107.915 Y106.31 E15.65806
G1 X107.844 Y104.483 E15.71887
G1 X107.787 Y103.656 E15.74644
G0 F6000 X107.39 Y103.702
G1 F1200 X107.361 Y103.052 E15.76808
G1 X107.33 Y102.443 E15.78836
G1 X112.735 Y102.442 E15.96814
G1 X112.735 Y110.44 E16.23415
G1 X112.763 Y110.822 E16.24689
G1 X112.791 Y111.007 E16.25311
G1 X112.706 Y111.178 E16.25946
G1 X107.761 Y111.179 E16.42393
G1 X107.541 Y106.934 E16.56531
G1 X107.531 Y106.593 E16.57666
G1 X107.515 Y106.325 E16.58559
G1 X107.44 Y104.418 E16.64907
G1 X107.39 Y103.702 E16.67294
G0 F6000 X106.988 Y103.692
G1 F1200 X106.961 Y103.073 E16.69355
G1 X106.908 Y102.043 E16.72785
G1 X113.135 Y102.042 E16.93496
G1 X113.135 Y110.44 E17.21428
G1 X113.159 Y110.763 E17.22505
G1 X113.205 Y111.072 E17.23544
G1 X113.196 Y111.087 E17.23602
G1 X113.013 Y111.464 E17.24996
G1 X112.983 Y111.578 E17.25388
G1 X107.381 Y111.579 E17.44021
G1 X107.144 Y107.006 E17.59251
G1 X107.138 Y106.739 E17.60139
G1 X107.121 Y106.471 E17.61032
G1 X107.041 Y104.446 E17.67773
G1 X106.988 Y103.692 E17.70287
G0 F6000 X106.589 Y103.72
G1 F1200 X106.562 Y103.093 E17.72374
G1 X106.487 Y101.643 E17.77203
G1 X113.535 Y101.642 E18.00645
G1 X113.535 Y110.44 E18.29907
G1 X113.555 Y110.704 E18.30788
G1 X113.622 Y111.157 E18.32311
G1 X113.538 Y111.295 E18.32848
G1 X113.376 Y111.638 E18.3411
G1 X113.296 Y111.978 E18.35272
G1 X107.001 Y111.979 E18.56209
G1 X106.743 Y107.002 E18.72785
G1 X106.738 Y106.748 E18.7363
G1 X106.721 Y106.49 E18.7449
G1 X106.642 Y104.474 E18.812
G1 X106.589 Y103.72 E18.83714
G0 F6000 X106.19 Y103.748
G1 F1200 X106.162 Y103.114 E18.85825
G1 X106.067 Y101.243 E18.92056
G1 X113.935 Y101.242 E19.18225
G1 X113.935 Y110.44 E19.48818
G1 X113.95 Y110.646 E19.49504
G1 X114.018 Y111.104 E19.51044
G1 X114.043 Y111.233 E19.51482
G1 X113.879 Y111.503 E19.52532
G1 X113.741 Y111.807 E19.53643
G1 X113.678 Y112.135 E19.54754
G1 X113.702 Y112.378 E19.55566
G1 X106.621 Y112.379 E19.79117
G1 X106.344 Y107.032 E19.96925
G1 X106.338 Y106.756 E19.97843
G1 X106.316 Y106.368 E19.99136
G1 X106.243 Y104.502 E20.05347
G1 X106.19 Y103.748 E20.07861
G0 F6000 X105.791 Y103.776
G1 F1200 X105.763 Y103.134 E20.09998
G1 X105.689 Y101.702 E20.14768
G1 X105.672 Y101.4 E20.15774
G1 X105.649 Y100.843 E20.17628
G1 X114.335 Y100.842 E20.46518
G1 X114.335 Y110.44 E20.78441
G1 X114.346 Y110.587 E20.78931
G1 X114.414 Y111.045 E20.80471
G1 X114.47 Y111.318 E20.81398
G1 X114.428 Y111.371 E20.81623
G1 X114.221 Y111.711 E20.82947
G1 X114.11 Y111.97 E20.83884
G1 X114.075 Y112.25 E20.84822
G1 X114.109 Y112.49 E20.85629
G1 X114.186 Y112.778 E20.8662
G1 X106.241 Y112.779 E21.13045
G1 X105.943 Y107.016 E21.32239
G1 X105.938 Y106.765 E21.33074
G1 X105.916 Y106.382 E21.3435
G1 X105.844 Y104.53 E21.40514
G1 X105.791 Y103.776 E21.43028
G0 F6000 X105.391 Y103.804
G1 F1200 X105.363 Y103.154 E21.45192
G1 X105.273 Y101.422 E21.50961
G1 X105.229 Y100.443 E21.5422
G1 X114.735 Y100.442 E21.85837
G1 X114.735 Y110.44 E22.19091
G1 X114.742 Y110.528 E22.19384
G1 X114.816 Y111.023 E22.21049
G1 X114.905 Y111.439 E22.22464
G1 X114.77 Y111.579 E22.23111
G1 X114.563 Y111.919 E22.24435
G1 X114.485 Y112.123 E22.25161
G1 X114.496 Y112.387 E22.2604
G1 X114.708 Y113.178 E22.28764
G1 X105.861 Y113.179 E22.58189
